packages/icons/src/assets/discount-circle.svg

<svg width="16" height="16" viewBox="0 0 16 16" xmlns="http://www.w3.org/2000/svg" fill="currentColor">
 <path d="M8 0.5C12.4129 0.5 16 3.86531 16 8C15.9999 12.1346 12.4128 15.5 8 15.5C3.58725 15.4999 9.3342e-05 12.1346 0 8C0 3.86535 3.58719 0.500062 8 0.5ZM8 1.75C4.20059 1.75006 1.25 4.63022 1.25 8C1.25009 11.3697 4.20065 14.2499 8 14.25C11.7994 14.25 14.7499 11.3697 14.75 8C14.75 4.63018 11.7995 1.75 8 1.75ZM10.6787 4.63086L6.39844 12.0439L5.31641 11.4189L9.59668 4.00586L10.6787 4.63086ZM10.3311 8.42969C11.2831 8.4299 11.9561 9.26011 11.9561 10.1553C11.9559 11.0503 11.283 11.8797 10.3311 11.8799C9.37894 11.8799 8.70618 11.0505 8.70605 10.1553C8.70605 9.25999 9.37885 8.42969 10.3311 8.42969ZM10.3311 9.67969C10.1787 9.67969 9.95605 9.83556 9.95605 10.1553C9.95617 10.4748 10.1787 10.6299 10.3311 10.6299C10.4834 10.6296 10.7059 10.4746 10.7061 10.1553C10.7061 9.83581 10.4834 9.67994 10.3311 9.67969ZM5.66406 4.16992C6.61621 4.16998 7.28906 4.99928 7.28906 5.89453C7.28902 6.78975 6.61618 7.61908 5.66406 7.61914C4.71189 7.61914 4.0391 6.78978 4.03906 5.89453C4.03906 4.99925 4.71186 4.16992 5.66406 4.16992ZM5.66406 5.41992C5.51168 5.41992 5.28906 5.57481 5.28906 5.89453C5.2891 6.2142 5.51169 6.36914 5.66406 6.36914C5.81643 6.36907 6.03903 6.21413 6.03906 5.89453C6.03906 5.57488 5.81645 5.41999 5.66406 5.41992Z"/>
 </svg>

<svg xmlns="http://www.w3.org/2000/svg" width="16" height="16" viewBox="0 0 16 16"><path d="M8 .5c4.413 0 8 3.365 8 7.5s-3.587 7.5-8 7.5S0 12.135 0 8 3.587.5 8 .5m0 1.25C4.2 1.75 1.25 4.63 1.25 8S4.2 14.25 8 14.25s6.75-2.88 6.75-6.25S11.8 1.75 8 1.75m2.679 2.88-4.28 7.414-1.083-.625 4.28-7.413zm-.348 3.8c.952 0 1.625.83 1.625 1.725s-.673 1.725-1.625 1.725-1.625-.83-1.625-1.725.673-1.725 1.625-1.725m0 1.25c-.152 0-.375.156-.375.475 0 .32.223.475.375.475s.375-.155.375-.475-.223-.475-.375-.475M5.664 4.17c.952 0 1.625.83 1.625 1.725s-.673 1.724-1.625 1.724S4.04 6.79 4.04 5.895c0-.896.673-1.725 1.625-1.725m0 1.25c-.152 0-.375.155-.375.475s.223.474.375.474.375-.155.375-.474c0-.32-.223-.475-.375-.475"/></svg>
